dist/icons/svgs/house-circle-exclamation-solid.svg

<svg xmlns="http://www.w3.org/2000/svg" width="24" height="24" fill="currentcolor" class="icon-house-circle-exclamation-solid" viewBox="0 0 24 24">
  <path d="M12.0094 15.75H9.60751C8.93198 15.75 8.40657 16.3359 8.40657 17V19.5V20.4375C8.40657 21.3359 7.73104 22 6.90539 22H6.00469H4.80375C4.72869 22 4.69116 22 4.61611 22C4.57858 22 4.54105 22 4.46599 22H3.86552C3.03987 22 2.36435 21.3359 2.36435 20.4375V16.1016C2.36435 16.0625 2.36435 16.0234 2.40188 15.9844V13.25H1.20094C0.52541 13.25 0 12.7031 0 12C0 11.6484 0.112588 11.3359 0.375293 11.0625L9.9828 2.3125C10.2455 2.03906 10.5457 2 10.8084 2C11.0711 2 11.3714 2.07812 11.5966 2.27344L19.5903 9.57812C19.2525 9.53906 18.9148 9.5 18.6145 9.5C15.1618 9.5 12.3096 12.2734 12.0094 15.75ZM18.6145 22C16.663 22 14.8991 20.9453 13.9234 19.1875C12.9476 17.4688 12.9476 15.3203 13.9234 13.5625C14.8991 11.8438 16.663 10.75 18.6145 10.75C20.5285 10.75 22.2924 11.8438 23.2682 13.5625C24.2439 15.3203 24.2439 17.4688 23.2682 19.1875C22.2924 20.9453 20.5285 22 18.6145 22ZM18.6145 18.25C18.0891 18.25 17.7138 18.6797 17.7138 19.1875C17.7138 19.7344 18.0891 20.125 18.6145 20.125C19.1024 20.125 19.5152 19.7344 19.5152 19.1875C19.5152 18.6797 19.1024 18.25 18.6145 18.25ZM18.6145 12.625C18.2768 12.625 18.0141 12.9375 18.0141 13.25V16.375C18.0141 16.7266 18.2768 17 18.6145 17C18.9148 17 19.215 16.7266 19.215 16.375V13.25C19.215 12.9375 18.9148 12.625 18.6145 12.625Z"/>
</svg>

<svg xmlns="http://www.w3.org/2000/svg" width="24" height="24" fill="currentColor" class="icon-house-circle-exclamation-solid" viewBox="0 0 24 24">
  <path d="M12.01 15.75H9.607c-.676 0-1.201.586-1.201 1.25v3.438c0 .898-.676 1.562-1.502 1.562H3.866c-.826 0-1.502-.664-1.502-1.562v-4.336c0-.04 0-.079.038-.118V13.25H1.2C.525 13.25 0 12.703 0 12c0-.352.113-.664.375-.937l9.608-8.75c.262-.274.563-.313.825-.313.263 0 .563.078.789.273l7.993 7.305a9 9 0 0 0-.976-.078c-3.452 0-6.304 2.773-6.605 6.25M18.614 22c-1.952 0-3.716-1.055-4.692-2.812-.975-1.72-.975-3.868 0-5.625.976-1.72 2.74-2.813 4.692-2.813 1.914 0 3.677 1.094 4.653 2.813.976 1.757.976 3.906 0 5.624-.976 1.758-2.74 2.813-4.654 2.813m0-3.75c-.526 0-.901.43-.901.938 0 .546.375.937.9.937.488 0 .901-.39.901-.937 0-.508-.413-.938-.9-.938m0-5.625c-.338 0-.6.313-.6.625v3.125c0 .352.262.625.6.625.3 0 .6-.273.6-.625V13.25c0-.312-.3-.625-.6-.625"/>
</svg>
